P3
8 8
255
0 0 0  120 52 30  170 71 35  170 71 35  170 71 35  170 71 35  120 52 30  0 0 0
120 52 30  210 110 55  210 110 55  210 110 55  210 110 55  210 110 55  210 110 55  120 52 30
170 71 35  210 110 55  20 20 20  210 110 55  210 110 55  20 20 20  210 110 55  170 71 35
170 71 35  210 110 55  210 110 55  210 110 55  245 226 190  210 110 55  210 110 55  170 71 35
170 71 35  210 110 55  210 110 55  210 110 55  210 110 55  210 110 55  210 110 55  170 71 35
120 52 30  170 71 35  210 110 55  210 110 55  210 110 55  210 110 55  170 71 35  120 52 30
0 0 0  120 52 30  170 71 35  170 71 35  170 71 35  170 71 35  120 52 30  0 0 0
0 0 0  0 0 0  0 0 0  0 0 0  0 0 0  0 0 0  0 0 0  0 0 0  0 0 0  0 0 0  0 0 0  0 0 0  0 0 0  0 0 0  0 0 0  0 0 0  0 0 0
